fs/playing_cards_20_filled.svg

<svg viewBox="0 0 20 20" fill="none" xmlns="http://www.w3.org/2000/svg" height="1em" width="1em">
  <path d="M5.06812 13.0092C4.78339 14.0764 5.41725 15.1743 6.48387 15.4613L11.9445 16.9309C13.0111 17.2179 14.1066 16.5854 14.3913 15.5182L16.9318 5.99547C17.2165 4.92823 16.5827 3.83036 15.5161 3.54332L10.0555 2.07378C8.98886 1.78673 7.89338 2.41921 7.60865 3.48645L5.06812 13.0092ZM5 4.00171L5 9.38422L6.77167 2.74343C6.84409 2.47199 6.95846 2.22305 7.10595 2.00171H7C5.89543 2.00171 5 2.89714 5 4.00171ZM2.67021 5.5059L4.00014 10.4693L4.00014 4.00174C4.00014 3.66405 4.05594 3.33939 4.15881 3.03648L4.08442 3.05641C3.01749 3.34229 2.38432 4.43897 2.67021 5.5059ZM13 6C13 6.55228 12.5523 7 12 7C11.4477 7 11 6.55228 11 6C11 5.44771 11.4477 5 12 5C12.5523 5 13 5.44771 13 6ZM10 14C9.44772 14 9 13.5523 9 13C9 12.4477 9.44772 12 10 12C10.5523 12 11 12.4477 11 13C11 13.5523 10.5523 14 10 14Z" fill="#212121"/>
</svg>

<svg viewBox="0 0 20 20" fill="none" xmlns="http://www.w3.org/2000/svg" height="1em" width="1em">
  <path d="M5.068 13.01a2.005 2.005 0 0 0 1.416 2.451l5.46 1.47a1.995 1.995 0 0 0 2.447-1.413l2.54-9.523a2.005 2.005 0 0 0-1.415-2.452l-5.46-1.47a1.995 1.995 0 0 0-2.447 1.413l-2.54 9.523ZM5 4.001v5.382l1.772-6.64c.072-.272.186-.521.334-.742H7a2 2 0 0 0-2 2ZM2.67 5.506 4 10.469V4.002c0-.338.056-.663.159-.966l-.075.02a2 2 0 0 0-1.414 2.45ZM13 6a1 1 0 1 1-2 0 1 1 0 0 1 2 0Zm-3 8a1 1 0 1 1 0-2 1 1 0 0 1 0 2Z" fill="#212121"/>
</svg>
